X:2133
T:The Rover's Bride
T:Ben y phoosee, Maarlagh lhuingey
C:Charles Clague, Ballaclague.
C:Traditional
O:Isle of Man
Z:Clague collection
B:Kiaull Vannin #133 
L:1/4
M:3/4  
K:D 
A|d2d |(dcB)|A2F |A2A |A2F |D2E |F2D |
(DFA) |A2d |e2d |B2A |A2d |f2e |d2 ||

